src/symbols/alphanum/1F522.svg

<svg id="emoji" viewBox="0 0 72 72" xmlns="http://www.w3.org/2000/svg">
  <g id="grid">
    <path fill="#b3b3b3" d="M68,4V68H4V4H68m4-4H0V72H72V0Z"/>
    <path fill="none" stroke="#00a5ff" stroke-miterlimit="10" stroke-width="0.1" d="M12.923,10.9583H59.0769A1.9231,1.9231,0,0,1,61,12.8814V59.0352a1.9231,1.9231,0,0,1-1.9231,1.9231H12.9231A1.9231,1.9231,0,0,1,11,59.0352V12.8813A1.923,1.923,0,0,1,12.923,10.9583Z"/>
    <rect x="16" y="4" rx="2.2537" width="40" height="64" fill="none" stroke="#00a5ff" stroke-miterlimit="10" stroke-width="0.1"/>
    <rect x="16" y="4" rx="2.2537" width="40" height="64" transform="translate(72) rotate(90)" fill="none" stroke="#00a5ff" stroke-miterlimit="10" stroke-width="0.1"/>
    <circle cx="36" cy="36" r="29" fill="none" stroke="#00a5ff" stroke-miterlimit="10" stroke-width="0.1"/>
  </g>
  <g id="color">
    <path fill="#d0cfce" stroke="none" stroke-linejoin="round" stroke-miterlimit="10" stroke-width="2" d="M59.0349,60H12.9651 C12.4343,60,12,59.5657,12,59.0349V12.9651C12,12.4343,12.4343,12,12.9651,12h46.0698C59.5657,12,60,12.4343,60,12.9651v46.0698 C60,59.5657,59.5657,60,59.0349,60z"/>
  </g>
  <g id="hair"/>
  <g id="skin"/>
  <g id="skin-shadow"/>
  <g id="line">
    <path fill="none" stroke="#000000" stroke-linejoin="round" stroke-miterlimit="10" stroke-width="2" d="M59.0349,60H12.9651 C12.4343,60,12,59.5657,12,59.0349V12.9651C12,12.4343,12.4343,12,12.9651,12h46.0698C59.5657,12,60,12.4343,60,12.9651v46.0698 C60,59.5657,59.5657,60,59.0349,60z"/>
    <path fill="none" stroke="#000000" stroke-linecap="round" stroke-linejoin="round" stroke-miterlimit="10" stroke-width="2" d="M39.4907,24.9226c0.2864-1.3997,1.5249-2.4527,3.0093-2.4527l0,0c0.8481,0,1.6161,0.3439,2.172,0.8997 c0.8647,0.8647,0.7849,2.3016-0.0264,3.2164l-5.2173,5.8839h6.1434"/>
    <path fill="none" stroke="#000000" stroke-linecap="round" stroke-linejoin="round" stroke-miterlimit="10" stroke-width="2" d="M27.7088,46.4738c0.263,1.1393,1.3999,1.9961,2.7626,1.9961l0,0c1.5574,0,2.8199-1.1193,2.8199-2.5s-1.2624-2.5-2.8199-2.5 c1.5574,0,2.8199-1.1193,2.8199-2.5s-1.2624-2.5-2.8199-2.5l0,0c-1.3627,0-2.4996,0.857-2.7626,1.9961"/>
    <polyline fill="none" stroke="#000000" stroke-linecap="round" stroke-linejoin="round" stroke-miterlimit="10" stroke-width="2" points="28.1158,24.5439 30.8842,22.4699 30.8842,32.4699"/>
    <polyline fill="none" stroke="#000000" stroke-linecap="round" stroke-linejoin="round" stroke-miterlimit="10" stroke-width="2" points="43.2914,38.4699 39.5754,46.8709 45.4246,46.8709"/>
    <line x1="44.4612" x2="44.4612" y1="43.7742" y2="48.4699" fill="none" stroke="#000000" stroke-linecap="round" stroke-linejoin="round" stroke-miterlimit="10" stroke-width="2"/>
  </g>
</svg>

<svg id="emoji" version="1.1" viewBox="0 0 72 72" xmlns="http://www.w3.org/2000/svg">
 <g id="grid">
  <path d="m68 4v64h-64v-64h64m4-4h-72v72h72z" fill="#b3b3b3"/>
  <path d="m12.92 10.96h46.15a1.923 1.923 0 0 1 1.923 1.923v46.15a1.923 1.923 0 0 1-1.923 1.923h-46.15a1.923 1.923 0 0 1-1.923-1.923v-46.15a1.923 1.923 0 0 1 1.923-1.923z" fill="none" stroke="#00a5ff" stroke-miterlimit="10" stroke-width=".1"/>
  <rect x="16" y="4" width="40" height="64" rx="2.254" fill="none" stroke="#00a5ff" stroke-miterlimit="10" stroke-width=".1"/>
  <rect transform="rotate(90,36,36)" x="16" y="4" width="40" height="64" rx="2.254" fill="none" stroke="#00a5ff" stroke-miterlimit="10" stroke-width=".1"/>
  <circle cx="36" cy="36" r="29" fill="none" stroke="#00a5ff" stroke-miterlimit="10" stroke-width=".1"/>
 </g>
 <g id="color" transform="translate(-.005724 -.00219)">
  <rect transform="translate(.005724 .00219)" x="12" y="12" width="48" height="47.83" fill="#fff"/>
  <rect transform="translate(.005724 .00219)" x="11" y="11" width="25.03" height="25.12" fill="#3f3f3f" stroke-linecap="round" stroke-width="2.019"/>
  <rect x="36" y="36" width="25.03" height="25.12" fill="#3f3f3f" stroke-linecap="round" stroke-width="2.019"/>
 </g>
 <g id="line-supplement" transform="translate(-.005724 -.00219)" clip-rule="evenodd" fill="none" stroke-linecap="round" stroke-linejoin="round" stroke-miterlimit="10" stroke-width="3.885px">
  <path d="m44.02 21c0.3905-1.902 2.075-3.336 4.093-3.336 1.154 0 2.197 0.4682 2.953 1.224 1.175 1.177 1.068 3.13-0.03497 4.375l-7.095 8h8.354" stroke="#3f3f3f"/>
  <path d="m20.96 51.93c0.3575 1.55 1.904 2.714 3.757 2.714 2.118 0 3.835-1.521 3.835-3.4 0-1.877-1.717-3.4-3.835-3.4 2.118 0 3.835-1.521 3.835-3.4 0-1.877-1.717-3.4-3.835-3.4-1.853 0-3.4 1.168-3.757 2.716" stroke="#3f3f3f"/>
  <path d="m21.34 20.48 3.763-2.821v13.6" stroke="#fff"/>
  <path d="m49.2 41.05-5.053 11.43h7.955" stroke="#fff"/>
  <path d="m50.86 48.27v6.388" stroke="#fff"/>
 </g>
 <g id="line">
  <rect x="12" y="12" width="48" height="48" fill="none" stroke="#000" stroke-linecap="round" stroke-linejoin="round" stroke-width="2"/>
 </g>
</svg>
